X: 19366
T: Jack's Maggot
R: barndance
M: 4/4
K: Dmajor
|:A2|d2 D2 F2 A2|BA Bc d2 e2|fg a2 Bc d2|e3f e2 c2|
d2 D2 F2 A2|Bc d2 c2 ag|f2 d2 e2 c2|d4 d2:|
|:fg|a2 f4 a2|f2 d4 ef|gf ed c2 d2|e6 fg|
a2 f2 d2 f2|A2 d2 F2 A2|d2 d2 e2 c2|d6:|

